X: 2
T: The Hunter's Purse
R: reel
M: 4/4
L: 1/8
K: Ador
Bd|eA~A2 AGEF|G2AF GEDB|cBcd e2ed|^cdeg gedg||eA~A2 AGEF|G2AF GEDB|cBcd eged|(3cBA BG A2:|ea~a2 agef|gbaf gedB|c3d e2ed|^cdeg gedg|ea~a2 agef|gbaf gedB|cBcd eged|(3cBA BG A2:|


Tune 283	Setting 283

